src/img/icon/freind.svg

<?xml version="1.0" encoding="UTF-8"?> <svg xmlns="http://www.w3.org/2000/svg" width="50" height="51" viewBox="0 0 50 51" fill="none"> <path d="M47.0152 23.821L42.1875 26.2348L35.9375 14.2657L40.8143 11.8273C41.1807 11.6441 41.6044 11.6121 41.9941 11.7382C42.3839 11.8643 42.7085 12.1385 42.8981 12.5016L47.7014 21.7002C47.7975 21.8842 47.8559 22.0854 47.8734 22.2922C47.8908 22.4989 47.8669 22.7071 47.803 22.9045C47.7391 23.1019 47.6365 23.2847 47.5013 23.442C47.366 23.5994 47.2008 23.7282 47.0152 23.821Z" stroke="#D32F2A" stroke-width="2.34375" stroke-linecap="round" stroke-linejoin="round"></path> <path d="M7.81261 26.0255L2.98494 23.6116C2.79935 23.5188 2.6341 23.39 2.49883 23.2326C2.36356 23.0753 2.261 22.8926 2.19711 22.6951C2.13323 22.4977 2.10931 22.2895 2.12674 22.0828C2.14418 21.876 2.20263 21.6748 2.29868 21.4909L7.10198 12.2922C7.29159 11.9291 7.61622 11.655 8.00597 11.5288C8.39571 11.4027 8.8194 11.4347 9.18579 11.6179L14.0626 14.0563L7.81261 26.0255Z" stroke="#D32F2A" stroke-width="2.34375" stroke-linecap="round" stroke-linejoin="round"></path> <path d="M42.1875 26.2348L39.0625 29.8906L31.8756 37.0776C31.6848 37.2684 31.4478 37.4065 31.1878 37.4785C30.9278 37.5506 30.6535 37.554 30.3917 37.4886L19.072 34.6586C18.8597 34.6056 18.6609 34.5085 18.4885 34.3737L7.8125 26.0255" stroke="#D32F2A" stroke-width="2.34375" stroke-linecap="round" stroke-linejoin="round"></path> <path d="M39.0626 29.8907L30.4689 23.6407L27.9689 25.5157C26.887 26.327 25.5712 26.7657 24.2189 26.7657C22.8666 26.7657 21.5507 26.327 20.4689 25.5157L19.4102 24.7216C19.2311 24.5873 19.0829 24.4161 18.9758 24.2195C18.8686 24.0229 18.805 23.8057 18.7891 23.5824C18.7732 23.3591 18.8055 23.135 18.8838 22.9252C18.9621 22.7155 19.0845 22.525 19.2428 22.3667L26.8862 14.7233C27.0313 14.5782 27.2036 14.4631 27.3932 14.3846C27.5827 14.3061 27.7859 14.2657 27.9911 14.2657H35.9376" stroke="#D32F2A" stroke-width="2.34375" stroke-linecap="round" stroke-linejoin="round"></path> <path d="M14.1747 14.0563L24.1981 11.1342C24.5562 11.0298 24.9398 11.0569 25.2796 11.2107L32.0312 14.2657" stroke="#D32F2A" stroke-width="2.34375" stroke-linecap="round" stroke-linejoin="round"></path> <path d="M21.875 41.6094L15.9884 40.1378C15.7495 40.078 15.5281 39.9627 15.3423 39.8012L10.9375 35.9724" stroke="#D32F2A" stroke-width="2.34375" stroke-linecap="round" stroke-linejoin="round"></path> </svg>

<svg xmlns="http://www.w3.org/2000/svg" width="50" height="51" fill="none"><path d="M47.015 23.821l-4.828 2.414-6.25-11.97 4.877-2.438a1.563 1.563 0 012.084.675l4.803 9.198a1.563 1.563 0 01-.686 2.121zM7.813 26.026l-4.828-2.414a1.562 1.562 0 01-.686-2.121l4.803-9.199a1.563 1.563 0 012.084-.674l4.877 2.438-6.25 11.97z" stroke="#D32F2A" stroke-width="2.344" stroke-linecap="round" stroke-linejoin="round"/><path d="M42.188 26.235l-3.126 3.656-7.186 7.187a1.562 1.562 0 01-1.484.41l-11.32-2.83a1.561 1.561 0 01-.584-.284L7.813 26.025" stroke="#D32F2A" stroke-width="2.344" stroke-linecap="round" stroke-linejoin="round"/><path d="M39.063 29.89l-8.594-6.25-2.5 1.876a6.25 6.25 0 01-7.5 0l-1.059-.794a1.561 1.561 0 01-.167-2.355l7.643-7.644a1.562 1.562 0 011.105-.457h7.947" stroke="#D32F2A" stroke-width="2.344" stroke-linecap="round" stroke-linejoin="round"/><path d="M14.175 14.056l10.023-2.922a1.562 1.562 0 011.082.077l6.751 3.055M21.875 41.61l-5.887-1.472a1.564 1.564 0 01-.646-.337l-4.405-3.829" stroke="#D32F2A" stroke-width="2.344" stroke-linecap="round" stroke-linejoin="round"/></svg>
